img/svg_icons/tg.svg

<svg width="20" height="17" viewBox="0 0 20 17" fill="none" xmlns="http://www.w3.org/2000/svg">
<path d="M0.30207 7.75256C2.34813 6.61857 4.63208 5.67209 6.76609 4.72079C10.4374 3.16264 14.1233 1.63149 17.8464 0.206014C18.5708 -0.0368589 19.8724 -0.274346 20 0.805763C19.9301 2.33471 19.6426 3.8547 19.4454 5.37469C18.945 8.7173 18.3665 12.0485 17.8024 15.3801C17.608 16.4898 16.2264 17.0643 15.3424 16.3541C13.2178 14.9102 11.077 13.4802 8.97958 12.0028C8.29253 11.3004 8.92964 10.2916 9.54324 9.78995C11.2931 8.05481 13.1488 6.58061 14.8072 4.75579C15.2545 3.66887 13.9327 4.58489 13.4968 4.86559C11.1012 6.52662 8.76434 8.28906 6.23871 9.74888C4.94862 10.4634 3.44499 9.8528 2.15548 9.45409C0.999303 8.9724 -0.694969 8.48711 0.301953 7.7527L0.30207 7.75256Z" fill="white"/>
</svg>

<svg width="20" height="17" fill="none" xmlns="http://www.w3.org/2000/svg"><path d="M.302 7.753c2.046-1.134 4.33-2.08 6.464-3.032 3.671-1.558 7.357-3.09 11.08-4.515.725-.243 2.026-.48 2.154.6-.07 1.529-.357 3.049-.555 4.569-.5 3.342-1.079 6.674-1.643 10.005-.194 1.11-1.576 1.684-2.46.974-2.124-1.444-4.265-2.874-6.362-4.351-.687-.703-.05-1.711.563-2.213 1.75-1.735 3.606-3.21 5.264-5.034.447-1.087-.874-.171-1.31.11-2.396 1.66-4.733 3.423-7.258 4.883-1.29.714-2.794.104-4.084-.295C1 8.972-.695 8.487.302 7.753z" fill="#fff"/></svg>
